!!!COM: Beethoven, Ludwig van
!!!CDT: 1770///-1827///
!!!OTL: Piano Sonata no. 17 in D minor
!!!OTP: tempest
!!!OMD: Largo---Allegro
!!!OPS: 31
!!!ONM: 2
!!!OMV: 1
!!!AGN: Sonata form
**kern	**kern	**dynam
*staff2	*staff1	*staff1/2
*Ipiano	*Ipiano	*Ipiano
*>[A,A1,A,A2,B]	*>[A,A1,A,A2,B]	*>[A,A1,A,A2,B]
*>norep[A,A2,B]	*>norep[A,A2,B]	*>norep[A,A2,B]
*>A	*>A	*>A
*clefF4	*clefG2	*clefG2
*k[b-]	*k[b-]	*k[b-]
*d:	*d:	*d:
*M4/4	*M4/4	*M4/4
=1-	=1-	=1-
!! Largo
!!FORM:	bars 1-96:	exposition
!!FORM:	bars 1-6:	first subject in D minor (tonic)
*MM40	*MM40	*MM40
*^	*	*
2C#/ 2E/ 2A/	[1CC# [1EE [1AA	2r	.
2r	.	(4c#'/	pp
.	.	4e'/)	.
*v	*v	*	*
=2	=2	=2
2.CC#;/] 2.EE;/] 2.AA;/]	2.a;/	.
!! Allegro
*MM168	*MM168	*MM168
4C#'\ 4A'\	(8a/L	p
.	8g/J)	.
=3	=3	=3
4D'\ 4A'\	(8g/L	.
.	8f/J)	.
4E\ 4A\	(8f/L	.
.	8e/J)	.
4F'\ 4A'\	(8e/L	.
.	8d/J)	.
4C#'\ 4A'\	(8a/L	.
.	8g/J)	.
=4	=4	=4
4D'\ 4A'\	(8g/L	.
.	8f/J)	.
4E'\ 4A'\	(8f/L	.
.	8e/J)	.
4F'\ 4A'\	(8e/L	.
.	8d/J)	<
4F#'\ 4d'\	(8dd\L	.
.	8ccn\J)	.
=5	=5	=5
4G'\ 4d'\	(8cc\L	.
.	8b-\J)	.
4A'\ 4d'\	(8b-/L	.
.	8a/J)	.
4B-'\ 4d'\	(8a/L	.
.	8g/J)	.
4B-'\ 4d'\	(8g/L	.
.	8g#/J)	.
=6	=6	=6
!! Adagio
*MM60	*MM60	*MM60
*	*^	*
2A\ 2d\	(4.g#/	2fn\	f
.	16bn/LL)	.	.
.	16a/JJ	.	p
2A;\ 2c#;\	2a;/	2e\	.
*	*v	*v	*
=7	=7	=7
!!FORM:	bars 7-41.1:	Connecting episode between 1st and 2nd themes
!! Largo
*MM40	*MM40	*MM40
*^	*	*
2E/ 2G/ 2cn/	[1EE [1GG [1Cn	2r	.
2r	.	(4e'/	p
.	.	4g'/)	.
*v	*v	*	*
=8	=8	=8
2.EE/] 2.GG/] 2.C/]	2.cc;\	.
!! Allegro
*MM168	*MM168	*MM168
4E'\ 4c'\	(8cc\L	p
.	8b-\J)	.
=9	=9	=9
4F'\ 4c'\	(8b-/L	.
.	8g#/J)	<
4r	(8g#/L	.
.	8a/J)	.
4r	(8a\L	.
.	8dd\J)	.
4F#'\ 4d'\	8dd\L	.
.	8cc\J	.
=10	=10	=10
4G'\ 4d'\	(8cc\L	.
.	8a\J)	.
4r	(8a\L	.
.	8b-\J)	.
4r	(8b-\L	.
.	8ee-\J)	.
4G'\ 4B-'\ 4e-'\	(8ee-\L	.
.	8dd\J)	.
=11	=11	=11
4r	(8dd\L	.
.	8cc#\J)	.
4G'\ 4A'\ 4c#'\ 4en'\	(8cc#\L	.
.	8bb-\J)	.
4r	(8bb-\L	.
.	(8een\J)	.
4G'\ 4B-'\ 4c#'\ 4e'\	8ee\L	.
.	8ccc#\J)	.
=12	=12	=12
4r	(8ccc#\L	.
.	8ff\J)	.
4G#'\ 4Bn'\ 4d'\ 4f'\	(8ff\L	.
.	8ddd\J)	.
4r	(8ddd\L	.
.	8ff\J)	.
4G#'\ 4B'\ 4d'\ 4f'\	(8ff\L	.
.	8fff\J)	.
=13	=13	=13
4A'\ 4d'\ 4f'\	(8fff\L	f
.	8ccc#\J)	.
4r	(8ccc#\L	.
.	8ddd\J)	.
2r	(8ddd\L	.
.	8gg#\J)	.
.	(8gg#\L	.
.	8aa\J)	.
=14	=14	=14
1r	(8aa\L	.
.	8ee\J)	.
.	(8ee\L	.
.	8ff\J)	.
.	(8ff\L	.
.	8cc#\J)	.
.	(8cc#\L	.
.	8dd\J)	.
=15	=15	=15
1r	(8dd\L	.
.	8g#\J)	.
.	(8g#/L	.
.	8a/J)	.
.	(8a/L	.
.	8e/J)	.
.	(8e/L	.
.	8f/J)	.
=16	=16	=16
2r	(8f/L	.
.	8c#/J)	.
.	(8c#/L	.
.	8d/J)	.
4r	(8d/L	.
.	8B-/J)	.
(8BB-/L	(8B-/L	.
8AA/J)	8A/J)	.
=17	=17	=17
(8AA/L	(8A/L	.
8C#/J)	8c#/J)	.
(8C#/L	(8c#/L	.
8D/J)	8d/J)	.
(8D/L	(8d/L	.
8BB-/J)	8B-/J)	.
(8BB-/L	(8B-/L	.
8AA/J)	8A/J)	.
=18	=18	=18
(8AA/L	(8A/L	.
8C#/J)	8c#/J)	.
(8C#/L	(8c#/L	.
8D/J)	8d/J)	.
(8D/L	(8d/L	.
8BB-/J)	8B-/J)	.
(8BB-/L	(8B-/L	.
8AA/J)	8A/J)	.
=19	=19	=19
*^	*	*
4AA\	[1AA	(8A/L	.
.	.	8B-/	.
[2.D\ [2.F\	.	8Bn/	.
.	.	8c/J	.
.	.	8c#/L	.
.	.	8d/	.
.	.	8e-/	.
.	.	8en/J	.
*v	*v	*	*
=20	=20	=20
4AA/] 4D/] 4F/]	8f/L	.
.	8f#/	.
4AA/ 4D/ 4F/	8g/	.
.	8g#/J	.
4AA/ 4E/ 4G/	8a/L	.
.	8b-/	.
4AA/ 4E/ 4G/	8c#/	.
.	8a/J)	f
=21	=21	=21
*^	*	*
12d/L	2DD\	1r	.
12A/	.	.	.
(12F/J	.	.	.
12A/L	.	.	.
12F/	.	.	.
12A/J)	.	.	.
(12F/L	4FF'\	.	.
12A/	.	.	.
12F/J	.	.	.
(12A/L)	4AA'\	.	.
12F/	.	.	.
12A/J)	.	.	.
=22	=22	=22	=22
12F/L	[1D	2r	.
12A/	.	.	.
12F/J	.	.	.
12A/L	.	.	.
12F/	.	.	.
12A/J	.	.	.
12F/L	.	4r	.
12A/	.	.	.
12F/J	.	.	.
12A/L	.	(4a/	p
12F/	.	.	.
12A/J	.	.	.
=23	=23	=23	=23
12F/L	1D_	4g#/	.
12A/	.	.	.
12F/J	.	.	.
12A/L	.	4a/	.
12F/	.	.	.
12A/J	.	.	.
12F/L	.	4b-/	.
12A/	.	.	.
12F/J	.	.	.
12A/L	.	4a/)	.
12F/	.	.	.
12A/J	.	.	.
=24	=24	=24	=24
12F/L	1D]	2a/	.
12A/	.	.	.
12F/J	.	.	.
12A/L	.	.	.
12F/	.	.	.
12A/J	.	.	.
12F/L	.	2a/	f
12A/	.	.	.
12F/J	.	.	.
12A/L	.	.	.
12F/	.	.	.
12A/J	.	.	.
=25	=25	=25	=25
12a/L	2EE\	1r	.
12c#/	.	.	.
12G/J	.	.	.
12c#/L	.	.	.
12G/	.	.	.
12c#/J	.	.	.
12G/L	4GG'\	.	.
12c#/	.	.	.
12G/J	.	.	.
12c#/L	4C#'\	.	.
12G/	.	.	.
12c#/J	.	.	.
=26	=26	=26	=26
12G/L	1E	2r	.
12c#/	.	.	.
12G/J	.	.	.
12c#/L	.	.	.
12G/	.	.	.
12c#/J	.	.	.
12G/L	.	4r	.
12c#/	.	.	.
12G/J	.	.	.
12c#/L	.	(4a/	p
12G/	.	.	.
12c#/J	.	.	.
=27	=27	=27	=27
12G/L	1E	4g#/	.
12c#/	.	.	.
(12G/J	.	.	.
12c#/L	.	4a/	.
12G/	.	.	.
12c#/J	.	.	.
12G/L	.	4b-/	.
12c#/	.	.	.
12G/J	.	.	.
12c#/L	.	4a/)	.
12G/	.	.	.
12c#/J	.	.	.
=28	=28	=28	=28
12G/L	1E)	2a/	.
12c#/	.	.	.
12G/J	.	.	.
12c#/L	.	.	.
12G/	.	.	.
12c#/J	.	.	.
12G/L	.	2a/	.
12c#/	.	.	.
12G/J	.	.	.
12c#/L	.	.	.
12G/	.	.	.
12c#/J	.	.	.
*v	*v	*	*
=29	=29	=29
2FF/	12a/L	f
.	12d/	.
.	12A/J	.
.	12d/L	.
.	12A/	.
.	12d/J	.
4AA'/	12A/L	.
.	12d/	.
.	12A/J	.
4D'/	12d/L	.
.	12A/	.
.	12d/J	.
=30	=30	=30
*^	*	*
12A/L	1F	2r	.
12d/	.	.	.
12A/J	.	.	.
12d/L	.	.	.
12A/	.	.	.
12d/J	.	.	.
12A/L	.	4dd'\	.
12d/	.	.	.
12A/J	.	.	.
12d/L	.	4r	.
12A/	.	.	.
12d/J	.	.	.
*v	*v	*	*
=31	=31	=31
2GG#/	12e/L	.
.	12Bn/	.
.	12e/J	.
.	12B/L	.
.	12e/	.
.	12B/J	.
4BBn'/	12e/L	.
.	12B/	.
.	12e/J	.
4E'\	12B/L	.
.	12e/	.
.	12B/J	.
=32	=32	=32
*^	*	*
12Bn/L	1G#	2r	.
12e/	.	.	.
12B/J	.	.	.
12e/L	.	.	.
12B/	.	.	.
12e/J	.	.	.
12B/L	.	4ee'\	.
12e/	.	.	.
12B/J	.	.	.
12e/L	.	4r	.
12B/	.	.	.
12e/J	.	.	.
*v	*v	*	*
=33	=33	=33
2AA/	12f/L	<
.	12c/	.
.	12f/J	.
.	12c/L	.
.	12f/	.
.	12c/J	.
4C'/	12f/L	.
.	12c/	.
.	12f/J	.
4F'\	12c/L	.
.	12f/	.
.	12c/J	.
=34	=34	=34
*^	*	*
12c/L	1A	2r	.
12f/	.	.	.
12c/J	.	.	.
12f/L	.	.	.
12c/	.	.	.
12f/J	.	.	.
12c/L	.	4ff'\	.
12f/	.	.	.
12c/J	.	.	.
12f/L	.	4r	.
12c/	.	.	.
12f/J	.	.	.
*v	*v	*	*
=35	=35	=35
2BBn/	12g#/L	.
.	12d/	.
.	12g#/J	.
.	12d/L	.
.	12g#/	.
.	12d/J	.
4D'\	12g#/L	.
.	12d/	.
.	12g#/J	.
4G#'\	12d/L	.
.	12g#/	.
.	12d/J	.
*clefG2	*	*
=36	=36	=36
*^	*	*
12d/L	1Bn	2r	.
12g#/	.	.	.
12d/J	.	.	.
12g#/L	.	.	.
12d/	.	.	.
12g#/J	.	.	.
12d/L	.	4gg#'\	.
12g#/	.	.	.
12d/J	.	.	.
12g#/L	.	4r	.
12d/	.	.	.
12g#/J	.	.	.
*v	*v	*	*
*clefF4	*	*
=37	=37	=37
2C/	12a/L	.
.	12e/	.
.	12a/J	.
.	12e/L	.
.	12a/	.
.	12e/J	.
4A'\	12a/L	.
.	12e/	.
.	12a/J	.
4c'\	12e/L	.
.	12a/	.
.	12e/J	.
*clefG2	*	*
=38	=38	=38
*	*^	*
1d# 1f#	2r	12a\L	ff
.	.	12cc\	.
.	.	12a\J	.
.	.	12cc\L	.
.	.	12a\	.
.	.	12cc\J	.
.	4aa/	12a\L	.
.	.	12cc\	.
.	.	12a\J	.
.	4r	12cc\L	.
.	.	12a\	.
.	.	12cc\J	.
=39	=39	=39	=39
1d# 1f#	2r	12a\L	.
.	.	12cc\	.
.	.	12a\J	.
.	.	12cc\L	.
.	.	12a\	.
.	.	12cc\J	.
.	4aa/	12a\L	.
.	.	12cc\	.
.	.	12a\J	.
.	4r	12cc\L	.
.	.	12a\	.
.	.	12cc\J	.
=40	=40	=40	=40
1d# 1f#	2r	12a\L	.
.	.	12cc\	.
.	.	12a\J	.
.	.	12cc\L	.
.	.	12a\	.
.	.	12cc\J	.
.	4aa/	12a\L	.
.	.	12cc\	.
.	.	12a\J	.
.	4r	12cc\L	.
.	.	12a\	.
.	.	12cc\J	.
*clefF4	*	*	*
=41	=41	=41	=41
8E\L	4g#\ 4bn\	4gg#/	f
8e\	.	.	.
!!FORM:	bars 41.2-63:	second subject in A minor
*	*v	*v	*
*	*^	*
8Bn\ 8dn\	2r	2r	.
8e\J	.	.	.
8fn\L	.	.	.
8e\	.	.	.
8B\ 8d\	(8bbn\L	4r	.
8e\J	8gg#\J)	.	.
*	*v	*v	*
=42	=42	=42
8E\L	(8ee\L	.
8e\	8ff\J)	.
8Bn\ 8d\	(8ff\L	.
8e\J	8dd\J)	.
8f\L	4r	.
8e\	.	.
8B\ 8d\	(8bbn\L	.
8e\J	8gg#\J)	.
=43	=43	=43
8E\L	(8ee\L	.
8e\	8ff\J)	.
8Bn\ 8d\	8ff\L	.
8e\J	8dd\J	.
8f\L	4r	.
8e\	.	.
8B\ 8d\	(8bbn\L	.
8e\J	8gg#\J)	.
=44	=44	=44
8E\L	(8ee\L	.
8e\	8ff\J)	.
8Bn\ 8d\	(8ff\L	.
8e\J	8dd\J)	.
8E\L	(8dd\L	.
8e\	8cc\J)	.
8G#\ 8B\	(8cc\L	.
8e\J	8bn\J)	.
=45	=45	=45
8E\L	(8bn\L	.
8e\	8cc\J)	.
8A\ 8c\	4a\	.
8e\J	.	.
8f\L	4r	.
8e\	.	.
8A\ 8c\	(8ccc\L	.
8e\J	8aa\J)	.
=46	=46	=46
8E\L	(8dd#\L	.
8e\	8ee\J)	.
8A\ 8c\	(8ee\L	.
8e\J	8cc\J)	.
8f\L	4r	.
8e\	.	.
8A\ 8c\	(8ccc\L	.
8e\J	8aa\J)	.
=47	=47	=47
8E\L	(8dd#\L	.
8e\	8ee\J)	.
8A\ 8c\	(8ee\L	.
8e\J	8cc\J)	.
8f\L	4r	.
8e\	.	.
8A\ 8c\	(8ccc\L	.
8e\J	8aa\J)	.
=48	=48	=48
8E\L	(8dd#\L	.
8e\	8ee\J)	.
8A\ 8c\	(8ee\L	.
8e\J	8cc\J)	.
8E\L	(8cc\L	.
8e\	8bn\J)	.
8A\ 8c\	(8b\L	.
8e\J	8a\J)	.
=49	=49	=49
8E\L	8a\L	.
8e\	8g#\J	.
8Bn\ 8d\	4bn'\	.
8e\J	.	.
8f\L	4r	.
8e\	.	.
8B\ 8d\	(8fff\L	<
8e\J	8ddd\J)	.
=50	=50	=50
8E\L	(8ccc#\L	.
8e\	8ddd\J	.
8Bn\ 8d\	4bbn'\)	.
8e\J	.	.
8f\L	4r	.
8e\	.	.
8B\ 8d\	(8fff\L	.
8e\J	8ddd\J)	.
=51	=51	=51
8E\L	(8ccc#\L	.
8e\	8ddd\J	.
8Bn\ 8d\	4bbn'\)	.
8e\J	.	.
8f\L	4r	.
8e\	.	.
8B\ 8d\	(8fff\L	.
8e\J	8ddd\J)	.
=52	=52	=52
4E\ 4Bn\ 4d\	(8bbn\L	f
.	8ddd\J)	.
4r	(8gg#\L	.
.	8bb\J)	.
2r	(8ff\L	.
.	8gg#\J)	.
.	(8dd\L	.
.	8ff\J)	.
=53	=53	=53
1r	(8bn\L	.
.	8dd\J)	.
.	(8g#/L	.
.	8b/J)	.
.	(8f/L	.
.	8g#/J)	.
.	(8d/L	.
.	8f/J)	.
=54	=54	=54
4r	(8Bn/L	.
.	8d/J)	.
*	*clefF4	*clefF4
(8GG#/L	(8G#\L	.
8BBn/J	8Bn\J	.
8DD/L	8D\L	.
8BB/	8B\	.
8GG#/	8G#\	.
8DD/J)	8D\J)	.
=55	=55	=55
4CC/	4C\	.
4CC'/ 4EE'/ 4AA'/	4C'\ 4E'\ 4A'\	.
[2DD/ [2FF/ [2BB-/	[2D\ [2F\ [2B-\	.
=56	=56	=56
*^	*^	*
2BB-/]	1DD] 1FF]	(2B-/]	1D] 1F]	.
4AA/	.	4A/	.	.
4GG#/	.	4G#/	.	.
*v	*v	*	*	*
*	*v	*v	*
=57	=57	=57
4CC'/ 4EE'/ 4AA'/	4C'\ 4E'\ 4A'\)	.
*	*clefG2	*clefG2
4C'\ 4E'\ 4A'\	4c'/ 4e'/ 4a'/	.
2D\ 2F\ [2B-\	[2d/ [2f/ [2b-/	.
=58	=58	=58
*^	*^	*
2B-/]	1D 1F	(2b-/]	1d] 1f]	.
4A/	.	4a/	.	.
4G#/	.	4g#/	.	.
*v	*v	*	*	*
*	*v	*v	*
=59	=59	=59
4C'\ 4E'\ 4A'\	4c'/ 4e'/ 4a'/)	.
*clefG2	*	*
4c'/ 4e'/	4a'\ 4aa'\	.
[2d/ [2f/	[2b-\ [2bb-\	.
=60	=60	=60
4d/] 4f/]	4b-\] 4bb-\]	.
4d#'/ 4f#'/	4bn'\ 4bbn'\	.
[2e/ [2a/	[2cc\ [2ccc\	.
=61	=61	=61
*^	*	*
4e/] 4a/]	4r	4cc\] 4ccc\]	>
[2.a/	4e\	4cc#\ (4ccc#\	.
.	4fn\	4dd\ 4ddd\	.
.	4c#\	4ee\ 4eee\	.
=62	=62	=62	=62
4a/]	4d\	4ff\ 4fff\)	.
*v	*v	*	*
*clefF4	*	*
*^	*	*
4B-/ 4d/	4D\	2f\ (2ff\	p
4A/ 4cn/	2E\	.	.
4G#/ 4Bn/	.	4e\ 4ee\	.
*v	*v	*	*
=63	=63	=63
!!FORM:	bars 63-90:	coda
4AA\ 4A\	4a/)	.
4AAA'/	4r	.
[2BBB-/	4r	.
.	4c#'/ 4e'/	.
=64	=64	=64
(2BBB-/]	4d'/ 4f'/	.
.	2f/ 2dd/	.
4AAA/	.	.
4GGG#/)	4f'/ 4dd'/	.
=65	=65	=65
4AAA'/	4e'/ 4cc#'/	.
4AAA'/	4r	.
[2BBB-/	4r	.
.	4c#'/ 4e'/	.
=66	=66	=66
(2BBB-/]	4d'/ 4f'/	.
.	2dd\ 2ff\	.
4AAA/	.	.
4GGG#/)	4dd'\ 4ff'\	.
=67	=67	=67
4AAA'/	4cc#'\ 4ee'\	.
4AAA'/	4r	.
[2BBB-/	4r	.
.	4c#'/ 4e'/	.
=68	=68	=68
(2BBB-/]	4d'/ 4f'/	.
.	2dd\ 2ff\	.
4AAA/	.	.
4GGG#/)	[4ddd\ [4fff\	ff
=69	=69	=69
8GGGn/L	4ddd'\] 4fff'\]	.
8FFF#/	.	.
8GGG/	4r	.
8AAA/J	.	.
8BBBn/L	4r	.
8GGG/	.	.
8AAA/	4dd\ (4ff\	p
8BBB/J	.	.
=70	=70	=70
8CC/L	4cc'\ 4ee'\)	.
8BBBn/	.	.
8CC/	4r	.
8DD/J	.	.
8EE/L	4r	.
8DD#/	.	.
8EE/	4ccc\ (4eee\	.
8DD#/J	.	.
=71	=71	=71
8EE/L	4bbn'\ 4ddd'\)	<
8DD#/	.	.
8EE/	4r	.
8FF#/J	.	.
8GG#/L	4r	.
8EE/	.	.
8FF#/	4bn\ (4dd\	.
8GG#/J	.	.
=72	=72	=72
8AA/L	4a'\ 4cc'\)	.
8GG#/	.	.
8AA/	4r	.
8BBn/J	.	.
8C/L	4r	.
8AA/	.	.
8BB/	[4aa\ (4ccc\	.
8C/J	.	.
=73	=73	=73
*	*^	*
8D\L	4bbn'/)	4aa'\]	.
8C#\	.	.	.
8D\	4r	4r	.
8E\J	.	.	.
8F\L	4r	4r	.
8D\	.	.	.
8E\	(4a\	4bn/	.
8F\J	.	.	.
=74	=74	=74	=74
8E\L	4bn'/)	4g#'\	.
8d#\	.	.	.
8e\	4r	4r	.
8d#\J	.	.	.
8e\L	4r	4r	.
8d#\	.	.	.
8e\	4r	4b\ 4gg#\	.
[8E\J	.	.	.
*	*v	*v	*
=75	=75	=75
*^	*	*
2c/ 2e/	1E]	(8aa\L	.
.	.	8ee\	.
.	.	8cc\	.
.	.	8ccc\J	.
2Bn/ 2dn/	.	8bbn\L	.
.	.	8gg#\	.
.	.	8ee\	.
.	.	8ddd\J	.
=76	=76	=76	=76
2A/ 2c/	1E	8ccc\L	.
.	.	8aa\	.
.	.	8ee\	.
.	.	8eee\J	<
2G#/ 2Bn/	.	8ddd#\L	.
.	.	8eee\	.
.	.	8ddd#\	.
.	.	8eee\J)	.
*v	*v	*	*
=77	=77	=77
8A\L	2ee\ 2ccc\ (2eee\	.
8E\	.	.
8C\	.	.
8A\J	.	.
8Bn\L	2dd\ 2bbn\ 2ddd\	.
8G#\	.	.
8E\	.	.
8B\J	.	.
=78	=78	=78
8c\L	2cc\ 2aa\ 2ccc\	.
8A\	.	.
8E\	.	.
8e\J	.	.
8d\L	2bn\ 2gg#\ 2bbn\)	.
8e\	.	.
8d\	.	.
8e\J	.	.
=79	=79	=79
*^	*	*
4r	2E\	(8aa\L	.
.	.	8ee\	.
2c/ 2e/	.	8cc\	.
.	.	8ccc\J	.
.	2E\	8bbn\L	.
.	.	8gg#\	.
[4Bn/ [4dn/	.	8ee\	.
.	.	8ddd\J	.
=80	=80	=80	=80
4B/] 4d/]	2E\	8ccc\L	.
.	.	8aa\	.
2A/ 2c/	.	8ee\	.
.	.	8eee\J	.
.	2E\	8ddd#\L	.
.	.	8eee\	.
4G#/ 4Bn/	.	8ddd#\	.
.	.	8eee\J)	.
*v	*v	*	*
=81	=81	=81
*	*^	*
8A\L	4r	2.ee\	.
8E\	.	.	.
8C\	2ccc/ (2eee/	.	.
8A\J	.	.	.
8Bn\L	.	.	.
8G#\	.	.	.
8E\	[4bbn/ [4ddd/	[4dd\	.
8B\J	.	.	.
=82	=82	=82	=82
8c\L	4bb/] 4ddd/]	4dd\]	.
8A\	.	.	.
8E\	2aa/ 2ccc/	2cc\	.
8e\J	.	.	.
8d#\L	.	.	.
8e\	.	.	.
8d#\	4gg#/ 4bbn/)	4bn\	.
8e\J	.	.	.
*	*v	*v	*
=83	=83	=83
*^	*	*
4r	2E\	(8aa\L	.
.	.	8ee\	.
2c/ 2e/	.	8cc\	.
.	.	8ccc\J	.
.	2E\	8bbn\L	.
.	.	8gg#\	.
[4Bn/ [4d/	.	8ee\	.
.	.	8ddd\J	.
=84	=84	=84	=84
4B/] 4d/]	2E\	8ccc\L	.
.	.	8aa\	.
2A/ 2c/	.	8ee\	.
.	.	8eee\J	.
.	2E\	8ddd#\L	.
.	.	8eee\	.
4G#/ 4Bn/	.	8ddd#\	.
.	.	8eee\J	.
=85	=85	=85	=85
4AA/	2AA\	8ccc\L	<
.	.	8aa\	.
4A/	.	8ee\	.
.	.	8eee\J	.
4E/	2E\	8ddd#\L	.
.	.	8eee\	.
4G#/ 4Bn/	.	8ddd#\	.
.	.	8eee\J	.
=86	=86	=86	=86
4A/	2A\	8ccc\L	>
.	.	8aa\	.
4c/	.	8ee\	.
.	.	8eee\J	.
4E/	2E\	8ddd#\L	.
.	.	8eee\	.
4G#/ 4Bn/	.	8ddd#\	.
.	.	8eee\J)	.
*v	*v	*	*
=87	=87	=87
4AA\ 4A\	4aa'\	.
4r	4r	.
*	*clefF4	*clefF4
2AAA/ 2AA/	2A\	p
=88	=88	=88
2AAA/ 2AA/	2A\	<
2AAA/ 2AA/	2A\	.
=89	=89	=89
*>A1	*>A1	*>A1
[1AAA [1AA	[1A	>
=90	=90	=90
1AAA] 1AA]	1A]	.
=91	=91	=91
!!FORM:	bars 91-92:	connecting passage to repetition of the exposition
2GGG/ 2GG/	(2G\	p
2FFF/ 2FF/	2F\	.
=92	=92	=92
2EE/	2E\	.
4FF/	4F\	.
4DD/	4D\)	.
=93:|!	=93:|!	=93:|!
*>A2	*>A2	*>A2
[1AAA [1AA	[1A	>
=94	=94	=94
1AAA] 1AA]	1A]	.
=95	=95	=95
!!FORM:	bars 95-96:	connecting passage between exposition and development
[1GGG [1GG	[1G	p
=96	=96	=96
1GGG] 1GG]	1G]	.
*	*clefG2	*clefG2
=97	=97	=97
!!FORM:	bars 97-147.1	development section
*>B	*>B	*>B
!! Largo
*MM40	*MM40	*MM40
1r	2d/	pp
.	(4f#'/	.
.	4a'/)	.
=98	=98	=98
1r;	2.dd;\	pp
.	4r	.
=99	=99	=99
1r	(2f#/	.
.	4a'/	.
.	4dd#'\	.
=100	=100	=100
1r;	2.ff#;\)	pp
.	4r	.
=101	=101	=101
1r	2a#/	.
.	(4cc#'\	.
.	4ff#'\)	.
=102	=102	=102
1r;	1aa#;	.
*	*clefF4	*clefF4
=103	=103	=103
!! Allegro
*MM168	*MM168	*MM168
2FFF#/	12F#\ (12An\L	ff
.	12c#\	.
.	12F#\ 12A\J	.
.	(12c#\L)	.
.	12F#\ 12A\	.
.	(12c#\J)	.
4AAAn'/	12F#\ 12A\L	.
.	12c#\	.
.	12F#\ 12A\J	.
4CC#'/	(12c#\L)	.
.	12F#\ 12A\	.
.	12c#\J)	.
=104	=104	=104
4FF#'/	12F#\ 12A\L	.
.	12c#\	.
.	12F#\ 12A\J	.
4r	12c#\L	.
.	12F#\ 12A\	.
.	12c#\J	.
4r	12F#\ 12A\L	.
.	12c#\	.
.	12F#\ 12A\J	.
*clefG2	*	*
(4cc#\	12c#\L	p
.	12F#\ 12A\	.
.	12c#\J	.
=105	=105	=105
4b#\	12F#\ 12A\L	.
.	12c#\	.
.	12F#\ 12A\J	.
4cc#\	12c#\L	.
.	12F#\ 12A\	.
.	12c#\J	.
4dd\	12F#\ 12A\L	.
.	12c#\	.
.	12F#\ 12A\J	.
4cc#\)	12c#\L	.
.	12F#\ 12A\	.
.	12c#\J	.
=106	=106	=106
2cc#\	12F#\ 12A\L	.
.	12c#\	.
.	12F#\ 12A\J	.
.	12c#\L	.
.	12F#\ 12A\	.
.	12c#\J	.
2cc#\	12F#\ 12A\L	.
.	12c#\	.
.	12F#\ 12A\J	.
.	12c#\L	.
.	12F#\ 12A\	.
.	12c#\J	.
*clefF4	*	*
=107	=107	=107
2GGG#/	12E#\ 12Bn\L	f
.	12c#\	.
.	12E#\ 12B\J	.
.	12c#\L	.
.	12E#\ 12B\	.
.	12c#\J	.
4BBBn'/	12E#\ 12B\L	.
.	12c#\	.
.	12E#\ 12B\J	.
4EE#'/	12c#\L	.
.	12E#\ 12B\	.
.	12c#\J	.
=108	=108	=108
4GG#'/	12E#\ 12Bn\L	.
.	12c#\	.
.	12E#\ 12B\J	.
4r	12c#\L	.
.	12E#\ 12B\	.
.	12c#\J	.
4r	12E#\ 12B\L	.
.	12c#\	.
.	12E#\ 12B\J	.
*clefG2	*	*
(4cc#\	12c#\L	p
.	12E#\ 12B\	.
.	12c#\J	.
=109	=109	=109
4b#\	12E#\ 12Bn\L	.
.	12c#\	.
.	12E#\ 12B\J	.
4cc#\	12c#\L	.
.	12E#\ 12B\	.
.	12c#\J	.
4dd\	12E#\ 12B\L	.
.	12c#\	.
.	12E#\ 12B\J	.
4cc#\)	12c#\L	.
.	12E#\ 12B\	.
.	12c#\J	.
=110	=110	=110
2cc#\	12E#\ 12Bn\L	.
.	12c#\	.
.	12E#\ 12B\J	.
.	12c#\L	.
.	12E#\ 12B\	.
.	12c#\J	.
2cc#\	12E#\ 12B\L	.
.	12c#\	.
.	12E#\ 12B\J	.
.	12c#\L	.
.	12E#\ 12B\	.
.	12c#\J	.
*clefF4	*	*
=111	=111	=111
2AAA^/	12F#\L	.
.	12A\ 12c#\	.
.	12F#\J	.
.	12A\ 12c#\L	.
.	12F#\	.
.	12A\ 12c#\J	.
4CC#'/	12F#\L	.
.	12A\ 12c#\	.
.	12F#\J	.
4FF#'/	12A\ 12c#\L	.
.	12F#\	.
.	12A\ 12c#\J	.
=112	=112	=112
4AA'/	12F#\L	.
.	12A\ 12c#\	.
.	12F#\J	.
4r	12A\ 12c#\L	.
.	12F#\	.
.	12A\ 12c#\J	.
*clefG2	*	*
4ff#'\	12F#\L	.
.	12A\ 12c#\	.
.	12F#\J	.
4r	12A\ 12c#\L	.
.	12F#\	.
.	12A\ 12c#\J	.
*clefF4	*	*
=113	=113	=113
2BBBn^/	12F#\L	.
.	12Bn\ 12d\	.
.	12F#\J	.
.	12B\ 12d\L	.
.	12F#\	.
.	12B\ 12d\J	.
4DD'/	12F#\L	.
.	12B\ 12d\	.
.	12F#\J	.
4FF#'/	12B\ 12d\L	.
.	12F#\	.
.	12B\ 12d\J	.
=114	=114	=114
4BBn'/	12F#\L	.
.	12Bn\ 12d\	.
.	12F#\J	.
4r	12B\ 12d\L	.
.	12F#\	.
.	12B\ 12d\J	.
*clefG2	*	*
4ff#'\	12F#\L	.
.	12B\ 12d\	.
.	12F#\J	.
4r	12B\ 12d\L	.
.	12F#\	.
.	12B\ 12d\J	.
*clefF4	*	*
=115	=115	=115
2BBBn/	12G\L	.
.	12Bn\ 12d\	.
.	12G\J	.
.	12B\ 12d\L	<
.	12G\	.
.	12B\ 12d\J	.
4DD'/	12G\L	.
.	12B\ 12d\	.
.	12G\J	.
4GG'/	12B\ 12d\L	.
.	12G\	.
.	12B\ 12d\J	.
=116	=116	=116
4BBn'/	12G\L	.
.	12Bn\ 12d\	.
.	12G\J	.
4r	12B\ 12d\L	.
.	12G\	.
.	12B\ 12d\J	.
*clefG2	*	*
4gg'\	12G\L	.
.	12B\ 12d\	.
.	12G\J	.
4r	12B\ 12d\L	.
.	12G\	.
.	12B\ 12d\J	.
*clefF4	*clefG2	*clefG2
=117	=117	=117
2CCn/	12G/L	.
.	12cn/ 12e/	.
.	12G/J	.
.	12c/ 12e/L	.
.	12G/	.
.	12c/ 12e/J	.
4EE'/	12G/L	.
.	12c/ 12e/	.
.	12G/J	.
4GG'/	12c/ 12e/L	.
.	12G/	.
.	12c/ 12e/J	.
=118	=118	=118
4Cn'/	12G/L	.
.	12c/ 12e/	.
.	12G/J	.
4r	12c/ 12e/L	.
.	12G/	.
.	12c/ 12e/J	.
*clefG2	*	*
4gg'\	12G/L	.
.	12c/ 12e/	.
.	12G/J	.
4r	12c/ 12e/L	.
.	12G/	.
.	12c/ 12e/J	.
*clefF4	*	*
=119	=119	=119
2CC#/	12A/L	.
.	12c#/ 12e/	.
.	12A/J	.
.	12c#/ 12e/L	.
.	12A/	.
.	12c#/ 12e/J	.
4EE'/	12A/L	.
.	12c#/ 12e/	.
.	12A/J	.
4AA/	12c#/ 12e/L	.
.	12A/	.
.	12c#/ 12e/J	.
=120	=120	=120
4C#'/	12A/L	.
.	12c#/ 12e/	.
.	12A/J	.
4r	12c#/ 12e/L	.
.	12A/	.
.	12c#/ 12e/J	.
*clefG2	*	*
4aa'\	12A/L	.
.	12c#/ 12e/	.
.	12A/J	.
4r	12c#/ 12e/L	.
.	12A/	.
.	12c#/ 12e/J	.
*clefF4	*	*
=121	=121	=121
2DD/	12A/L	.
.	12d/ 12fn/	.
.	12A/J	.
.	12d/ 12f/L	.
.	12A/	.
.	12d/ 12f/J	.
4FF'/	12A/L	.
.	12d/ 12f/	.
.	12A/J	.
4AA'/	12d/ 12f/L	.
.	12A/	.
.	12d/ 12f/J	.
=122	=122	=122
4D'\	12A/L	.
.	12d/ 12f/	.
.	12A/J	.
4r	12d/ 12f/L	.
.	12A/	.
.	12d/ 12f/J	.
*clefG2	*	*
4aa'\	12A/L	.
.	12d/ 12f/	.
.	12A/J	.
4r	12d/ 12f/L	.
.	12A/	.
.	12d/ 12f/J	.
=123	=123	=123
*clefF4	*	*
12BBn/	2r	.
12d\L	.	.
12Bn\J	.	.
12d\L	.	.
12B\	.	.
12d\J	.	.
12B\L	4g#'\ 4gg#'\	.
12d\	.	.
12B\J	.	.
12d\L	4r	.
12B\	.	.
12d\J	.	.
=124	=124	=124
12BB-/	2r	.
12d\L	.	.
12B-\J	.	.
12d\L	.	.
12B-\	.	.
12d\J	.	.
12B-\L	4dd'\ 4ddd'\	.
12d\	.	.
12B-\J	.	.
12d\L	4r	.
12B-\	.	.
12d\J	.	.
=125	=125	=125
8AA/	8cc#'\ 8ccc#'\	ff
(8A\L	(8a/L	.
8G#\	8g#/	.
8A\J	8a/J	.
8G#\L	8g#/L	.
8A\	8a/	.
8G#\	8g#/	.
8A\J)	8a/J)	.
=126	=126	=126
(8G#\L	(8g#\L	.
8A\	8a\	.
8c#\ 8e\	8cc#\ 8ee\	.
8A\J	8a\J)	.
8d\) 8f\L	8dd\ (8ff\L	.
8A\	8a\	.
8Bn\ 8d\	8bn\ 8dd\	.
8A\J	8a\J)	.
=127	=127	=127
8c#\ (8e\L	8cc#\ (8ee\L	.
8A\	8a\	.
8c#\ 8e\	8cc#\ 8ee\	.
8A\J)	8a\J)	.
8d\ (8f\L	8dd\ (8ff\L	.
8A\	8a\	.
8Bn\ 8d\	8bn\ 8dd\	.
8A\J)	8a\J)	.
=128	=128	=128
8c#\ (8e\L	8cc#\ (8ee\L	.
8A\	8a\	.
8c#\ 8e\	8cc#\ 8ee\	.
8A\J)	8a\J)	.
8d\ (8f\L	8dd\ (8ff\L	.
8A\	8a\	.
8Bn\ 8d\	8bn\ 8dd\	.
8A\J)	8a\J)	.
=129	=129	=129
8c#\ (8e\L	8cc#\ (8ee\L	.
8A\	8a\	.
8G#\	8g#\	.
8A\J)	8a\J)	.
(8G#\L	(8g#/L	.
8A\	8a/	.
8G#\	8g#/	.
8A\J)	8a/J)	.
=130	=130	=130
(8G#\L	(8g#/L	.
8A\	8a/	.
8C#\ 8E\	8c#/ 8e/	.
8A\J)	8a/J	.
8D\ (8F\L	(8d/) 8f/L	.
8A\	8a/	.
8BBn\ 8D\	8Bn/ 8d/	.
8A\J)	8a/J)	.
=131	=131	=131
8C#\ (8E\L	(8c#/ 8e/L	.
8A\	8a/	.
8C#\ 8E\	8c#/ 8e/	.
8A\J)	8a/J	.
8D\ (8F\L	(8d/ 8f/L)	.
8A\	8a/	.
8BBn\ 8D\	8Bn/ 8d/	.
8A\J)	8a/J)	.
=132	=132	=132
8C#\ (8E\L	(8c#/ 8e/L	.
8A\	8a/	.
8C#\ 8E\	8c#/ 8e/	.
8A\J)	8a/J	.
8D\ (8F\L	(8d/) 8f/L	.
8A\	8a/	.
8BBn\ 8D\	8Bn/ 8d/	.
8A\J)	8a/J)	.
*	*clefF4	*clefF4
=133	=133	=133
(8C#/ 8E/L	8c#\ (8e\L	.
8AA/	8A\	.
8GG#/	8G#\	.
8AA/J)	8A\J)	.
(8GG#/L	(8G#\L	.
8AA/	8A\	.
8GG#/	8G#\	.
8AA/J)	8A\J)	.
=134	=134	=134
(8GG#/L	(8G#\L	.
8AA/	8A\	.
8C#/ 8E/	8c#\ 8e\	.
8AA/J)	8A\J)	.
(8BBn/ 8D/L	8d\ (8f\L	.
8AA/	8A\	.
8D/ 8F/	8Bn\ 8d\	.
8AA/J)	8A\J)	.
=135	=135	=135
(8C#/ 8E/L	8c#\ (8e\L	.
8AA/	8A\	.
8C#/ 8E/	8c#\ 8e\	.
8AA/J)	8A\J)	.
(8BBn/ 8D/L	8d\ (8f\L	.
8AA/	8A\	.
8D/ 8F/	8Bn\ 8d\	.
8AA/J)	8A\J)	.
=136	=136	=136
(8C#/ 8E/L	8c#\ (8e\L	.
8AA/	8A\	.
8C#/ 8E/	8c#\ 8e\	.
8AA/J)	8A\J)	.
(8BBn/ 8D/L	8d\ (8f\L	.
8AA/	8A\	.
8D/ 8F/	8Bn\ 8d\	.
8AA/J)	8A\J)	.
=137	=137	=137
1AA 1C# 1E	1A 1c# 1e	.
=138	=138	=138
1AAA 1AA	1F 1A 1d	>
=139	=139	=139
1AAA 1AA	1E 1A 1c#	.
=140	=140	=140
1AAA 1AA	1D 1F 1B-	.
=141	=141	=141
!	!(C#q/LL	!.
!	!Eq/JJ	!.
[1AAA [1AA	[1A)	p
=142	=142	=142
1AAA] 1AA]	1A]	.
=143	=143	=143
2.BB-/	(2.B-\	.
4AA/	4A\	.
=144	=144	=144
4GGn/	4Gn\	.
4FF/	4F\	.
4EE-/	4E-\	.
4DD/	4D\	.
=145	=145	=145
4CC#/	4C#\	.
4GG/	4G\	.
4BB-/	4B-\	.
4AA/	4A\	.
=146	=146	=146
4GG/	4G\	.
4FF/	4F\	.
4EE-/	4E-\	.
4DD/	4D\)	.
=147	=147	=147
!!FORM: bars 147-232	recapitulation
!!FORM:	bars 147-156	first subject in original key of D minor
!! Largo
*MM40	*MM40	*MM40
1CC# 1EEn 1AA	2C#\ 2En\ 2A\	pp
*	*clefG2	*clefG2
.	(4c#'/	.
.	4e'/)	.
=148	=148	=148
1r	[2a/	.
.	8a/L]	.
.	8a/	.
.	8a/	.
.	8b-/J	.
=149	=149	=149
1r	(4a/	.
.	[4g/)	.
.	8..g\L]	.
.	32g\kk	.
.	8..ee\	.
.	32dd\Jkk	.
=150	=150	=150
1r	4dd\	.
.	(2cc#\	.
.	4ee\)	.
=151	=151	=151
1r	4.ee^\	.
.	8g/	.
.	4.b-/	.
.	8a/	.
=152	=152	=152
2r	4g/	.
.	4f/	.
4r;	4r;	.
*MM168	*MM168	*MM168
4C#'\ 4A'\	(8a/L	p
.	8g/J)	.
=153	=153	=153
4D'\ 4A'\	(8g/L	.
.	8f/J)	.
4E'\ 4A'\	(8f/L	.
.	8e/J)	.
4F'\ 4A'\	(8e/L	.
.	8d/J)	.
4C#'\ 4A'\	(8a/L	.
.	8g/J)	.
=154	=154	=154
4D'\ 4A'\	(8g/L	.
.	8f/J)	.
4E'\ 4A'\	(8f/L	.
.	8e/J)	.
4F'\ 4A'\	(8e/L	.
.	8d/J)	.
4F#'\ 4d'\	(8dd\L	.
.	8ccn\J)	.
=155	=155	=155
4G'\ 4d'\	(8cc\L	.
.	8b-\J)	.
4A'\ 4d'\	(8b-/L	.
.	8a/J)	.
4B-'\ 4d'\	(8a/L	.
.	8g/J)	.
4B-'\ 4d'\	(8g/L	.
.	8g#/J)	.
=156	=156	=156
!! Adagio
*MM60	*MM60	*MM60
*	*^	*
2A\ 2d\	(4.g#/	2f\	.
.	16bn/LL	.	.
.	16a/JJ	.	p
2A;\ 2c#;\	2a/)	2e\	.
*	*v	*v	*
=157	=157	=157
!!FORM:	bars 157-175.1	connecting episode between first and second themes
!! Largo
*MM40	*MM40	*MM40
*^	*	*
2E/ 2G/ 2cn/	[1EE [1GG [1Cn	2r	pp
2r	.	(4e'/	.
.	.	4g'/)	.
*v	*v	*	*
=158	=158	=158
1EE;] 1GG;] 1C;]	1cc;	.
=159	=159	=159
1r	2dd-\	.
.	4..d-/	.
.	16d-/	.
=160	=160	=160
1r	(4c/	.
.	[4B-/)	.
.	8B-/L]	.
.	8g/	.
.	8g/	.
.	8a-/J	.
=161	=161	=161
1r	4.b-\	.
.	8b-\	.
.	4dd-\	.
.	8cc\L	.
.	8g\J	.
=162	=162	=162
1r	1a-;	.
=163	=163	=163
!! Allegro
*MM168	*MM168	*MM168
4EEE#'/ 4CC#'/ 4EE#'/	4G#'/ 4c#'/ 4g#'/	pp
4r	4r	.
4EEE#'/ 4CC#'/ 4EE#'/	4G#'/ 4c#'/ 4g#'/	.
4r	4r	.
=164	=164	=164
4EEE#'/ 4CC#'/ 4EE#'/	4G#'/ 4c#'/ 4g#'/	.
4r	4r	.
4EEE#'/ 4CC#'/ 4EE#'/	4G#'/ 4c#'/ 4g#'/	.
4r	4r	.
=165	=165	=165
4FFF#/ 4CC#/ 4FF#/	(12an/L	.
.	12f#/	.
.	12c#/J)	.
12A/L	4r	.
12F#/	.	.
12C#/J	.	.
12A/L	4r	.
12F#/	.	.
12C#/J	.	.
(24AA/LL	4r	.
24C#/	.	.
24F#/	.	.
24A/	.	.
24c#/	.	.
24f#/JJ)	.	.
=166	=166	=166
1r	(12a/L	.
.	12f#/	.
.	12c#/J)	.
.	(12A/L	.
.	12c#/	.
.	12f#/J)	.
.	(12a\L	.
.	12cc#\	.
.	12ff#\J)	.
.	16aa\LL	.
.	16ff#\	.
.	16cc#\	.
.	16a\JJ	.
=167	=167	=167
4FF#'/ 4D'/ 4F#'/	4A'/ 4d'/ 4a'/	pp
4r	4r	.
4FF#'/ 4D'/ 4F#'/	4A'/ 4d'/ 4a'/	.
4r	4r	.
=168	=168	=168
4FF#'/ 4D'/ 4F#'/	4A'/ 4d'/ 4a'/	.
4r	4r	.
4FF#'/ 4D'/ 4F#'/	4A'/ 4d'/ 4a'/	.
4r	4r	.
=169	=169	=169
4GG'\ 4D'\ 4G'\	12b-/L	.
.	12g/	.
.	12d/J	.
12B-/L	4r	.
12G/	.	.
12D/J	.	.
12B-/L	4r	.
12G/	.	.
12D/J	.	.
24BB-/LL	4r	.
24D/	.	.
24G/	.	.
24B-/	.	.
24d/	.	.
24g/JJ	.	.
=170	=170	=170
1r	12b-/L	.
.	12g/	.
.	12d/J	.
.	12B-/L	.
.	12d/	.
.	12g/J	.
.	12b-\L	.
.	12dd\	.
.	12gg\J	.
.	16bb-\LL	.
.	16gg\	.
.	16dd\	.
.	16b-\JJ	.
=171	=171	=171
*	*^	*
4G'\ 4B-'\ 4c#'\ 4e'\	4cc#'/ 4ee'/	4g'\ 4b-'\	ff
4r	4r	4r	.
4G'\ 4B-'\ 4c#'\ 4e'\	4cc#'/ 4ee'/	4g'\ 4b-'\	.
4r	4r	4r	.
=172	=172	=172	=172
4G'\ 4B-'\ 4c#'\ 4e'\	4cc#'/ 4ee'/	4g'\ 4b-'\	.
4r	4r	4r	.
4G'\ 4B-'\ 4c#'\ 4e'\	4cc#'/ 4ee'/	4g'\ 4b-'\	.
4r	4r	4r	.
*	*v	*v	*
=173	=173	=173
4G#\ 4Bn\ 4d\ 4f\	12ff\L	.
.	12dd\	.
.	12bn\J	.
4r	12g#/L	.
.	12f/	.
.	12dd/J	.
2r	12b/L	.
.	12g#/	.
.	12f/J	.
.	12d/L	.
.	12f/	.
.	12g#/J	.
=174	=174	=174
1r	12bn\L	.
.	12dd\	.
.	12ff\J	.
.	12gg#\L	.
.	12bbn\	.
.	12ddd\J	.
.	(4fff\	.
.	4ddd\	.
*clefG2	*	*
=175	=175	=175
!!FORM:	bars 175-197	second subject transposed to D minor (tonic)
8A/L	4ccc#\)	.
8a/	.	.
8e/ 8g/	4r	.
8a/J	.	.
8b-/L	4r	.
8a/	.	.
8e/ 8g/	(8eee\L	.
8a/J	8ccc#\J)	.
=176	=176	=176
8A/L	(8aa\L	.
8a/	8bb-\J)	.
8g/	(8bb-\L	.
8a/J	8gg\J)	.
8b-/L	4r	.
8a/	.	.
8e/ 8g/	(8eee\L	.
8a/J	8ccc#\J)	.
=177	=177	=177
8A/L	(8aa\L	.
8a/	8bb-\J)	.
8e/ 8g/	(8bb-\L	.
8a/J	8gg\J)	.
8b-/L	4r	.
8a/	.	.
8e/ 8g/	(8eee\L	.
8a/J	8ccc#\J)	.
=178	=178	=178
8A/L	(8aa\L	.
8a/	8bb-\J)	.
8e/ 8g/	(8bb-\L	.
8a/J	8gg\J)	.
8A/L	(8gg\L	.
8a/	8ff\J)	.
8c#/ 8e/	(8ff\L	.
8a/J	8ee\J)	.
=179	=179	=179
8A/L	(8ee\L	.
8a/	8ff\J)	.
8d/ 8f/	4dd'\	.
8a/J	.	.
8b-/L	4r	.
8a/	.	.
8d/ 8f/	(8fff\L	.
8a/J	8ddd\J)	.
=180	=180	=180
8A/L	(8gg#\L	.
8a/	8aa\J)	.
8d/ 8f/	(8aa\L	.
8a/J	8ff\J)	.
8b-/L	4r	.
8a/	.	.
8d/ 8f/	(8fff\L	.
8a/J	8ddd\J)	.
=181	=181	=181
8A/L	(8gg#\L	.
8a/	8aa\J)	.
8d/ 8f/	(8aa\L	.
8a/J	8ff\J)	.
8b-/L	4r	.
8a/	.	.
8d/ 8f/	(8fff\L	.
8a/J	8ddd\J)	.
=182	=182	=182
8A/L	(8gg#\L	.
8a/	8aa\J)	.
8d/ 8f/	(8aa\L	.
8a/J	8ff\J)	.
8A/L	(8ff\L	.
8a/	8ee\J)	.
8d/ 8f/	(8ee'\L	.
8a/J	8dd\J)	.
=183	=183	=183
8A/L	(8dd\L	.
8a/	8cc#\J)	.
8e/ 8g/	4ee'\	.
8a/J	.	.
8b-/L	4r	.
8a/	.	.
8e/ 8g/	(8bb-\L	<
8a/J	8gg\J)	.
=184	=184	=184
8A/L	(8dd#\L	.
8a/	8ee\J)	.
8e/ 8g/	4cc#'\	.
8a/J	.	.
8b-/L	4r	.
8a/	.	.
8e/ 8g/	(8bb-\L	.
8a/J	8gg\J)	.
=185	=185	=185
8A/L	(8dd#\L	.
8a/	8ee\J)	.
8e/ 8g/	4cc#'\	.
8a/J	.	.
8b-/L	4r	.
8a/	.	.
8e/ 8g/	(8bb-\L	.
8a/J	8gg\J)	.
=186	=186	=186
4A/ 4e/ 4g/	(8ee\L	f
.	8gg\J)	.
4r	(8cc#\L	.
.	8ee\J)	.
2r	(8b-\L	.
.	8cc#\J)	.
.	(8g/L	.
.	8b-/J)	.
=187	=187	=187
1r	(8e/L	.
.	8g/J)	.
.	(8c#/L	.
.	8e/J)	.
.	(8B-/L	.
.	8c#/J)	.
*	*clefF4	*clefF4
.	(8G\L	.
.	8B-\J)	.
*clefF4	*	*
=188	=188	=188
4r	(8E\L	.
.	8G\J)	.
(8CC#/L	(8C#/L	.
8EE/J	8E/J	.
8GGG/L	8GG/L	.
8EE/	8E/	.
8CC#/	8C#/	.
8GGG/J)	8GG/J)	.
=189	=189	=189
4FFF'/	4FF'/	.
4FF'/ 4AA'/ 4D'/	4F'\ 4A'\ 4d'\	.
[2GG/ [2BB-/ [2E-/	[2G\ [2B-\ [2e-\	.
=190	=190	=190
*^	*^	*
(2E-/]	1GG] 1BB-]	(2e-/]	1G] 1B-]	.
4D/	.	4d/	.	.
4C#/)	.	4c#/)	.	.
*v	*v	*	*	*
*	*v	*v	*
=191	=191	=191
4FF'/ 4AA'/ 4D'/	4F'\ 4A'\ 4d'\	.
*	*clefG2	*clefG2
4F'\ 4A'\ 4d'\	4f'/ 4a'/ 4dd'/	.
([2G\ 2B-\ [2e-\	[2g/ [2b-/ [2ee-/	.
=192	=192	=192
*^	*^	*
2e-/]	1G]) 1B-	2ee-/]	1g] 1b-]	.
4d/	.	4dd/	.	.
4c#/	.	4cc#/	.	.
*v	*v	*	*	*
*	*v	*v	*
=193	=193	=193
4F'\ 4A'\ 4d'\	4f'/ 4a'/ 4dd'/	.
*clefG2	*	*
4f'/ 4a'/	4dd'\ 4ddd'\	.
[2g/ [2b-/	[2ee-\ [2ddd\	.
=194	=194	=194
4g/] 4b-/]	4ee-\] 4ddd\]	.
4g#'/ 4bn'/	4een'\ 4ddd'\	.
[2a/ [2ccn/	[2ff\ [2ddd\	.
=195	=195	=195
*	*^	*
4a/] 4cc/]	4r	4ff\] 4ddd\]	.
4a/ 4cc/	2ddd/	4ff#\	.
4b-/ 4dd/	.	4gg\	.
4f#/ 4cc/	4r	(4aa\ [4ddd\	.
*	*v	*v	*
=196	=196	=196
*^	*	*
4g/ 4b-/	4r	4bb-\) 4ddd\]	.
4e-/ 4g/	4G\	2b-\ 2gg\ (2bb-\	p
4d/ 4f/	2A\	.	.
4c#/ 4en/	.	4a\ 4aa\	.
*v	*v	*	*
*clefF4	*	*
=197	=197	=197
!!FORM:	bars 197-232	coda
4D'\ 4d'\	4dd'\)	f
4DD/	4r	.
[2EE-/	4r	.
*	*clefF4	*clefF4
.	4F#'\ 4A'\	.
=198	=198	=198
(2EE-/]	4G'\ 4B-'\	.
*	*clefG2	*clefG2
.	2B-/ 2g/	.
4DD/	.	.
4CC#/)	4B-'/ 4g'/	.
=199	=199	=199
4DD'/	4A'/ 4f#'/	.
4DD'/	4r	.
[2EE-/	4r	.
*	*clefF4	*clefF4
.	4F#'\ 4A'\	.
=200	=200	=200
(2EE-/]	4G'\ 4B-'\	.
*	*clefG2	*clefG2
.	2g/ 2b-/	.
4DD/	.	.
4CC#/)	4g'/ 4b-'/	.
=201	=201	=201
4DD'/	4f#'/ 4a'/	.
4DD'/	4r	.
[2EE-/	4r	.
*	*clefF4	*clefF4
.	4F#'\ 4A'\	.
=202	=202	=202
(2EE-/]	4G'\ 4B-'\	.
*	*clefG2	*clefG2
.	2g/ 2b-/	.
4DD/	.	.
4CC#/)	[4gg\ [4bb-\	ff
=203	=203	=203
8CCn/L	4gg\] 4bb-\]	p
8BBBn/	.	.
8CC/	4r	.
8DD/J	.	.
8EEn/L	4r	.
8CC/	.	.
8DD/	(4g/ 4b-/	p
8EE/J	.	.
=204	=204	=204
8FF/L	4f'/) 4a'/	.
8EE/	.	.
8FF/	4r	.
8GG/J	.	.
8AA/L	4r	.
8GG#/	.	.
8AA/	4ff\ (4aa\	.
8GG#/J	.	.
=205	=205	=205
8AA/L	4ee'\ 4gg'\)	.
8GG#/	.	.
8AA/	4r	.
8BBn/J	.	.
8C#/L	4r	.
8AA/	.	.
8BB/	(4e/ 4g/	.
8C#/J	.	.
=206	=206	=206
8D\L	4d'/) 4f'/	.
8C#\	.	.
8D\	4r	.
8E\J	.	.
8F\L	4r	.
8D\	.	.
8E\	[4dd\ (4ff\	<
8F\J	.	.
=207	=207	=207
*	*^	*
8G\L	4ee'/)	4dd'\]	.
8F#\	.	.	.
8G\	4r	4r	.
8A\J	.	.	.
8B-\L	4r	4r	.
8G\	.	.	.
8A\	4r	[4ee\ (4ddd\	.
8B-\J	.	.	.
*	*v	*v	*
=208	=208	=208
8A\L	4ee'\] 4ccc#'\)	f
8G#\	.	.
8A\	4r	.
8G#\J	.	.
8A\L	4r	.
8G#\	.	.
8A\	4e/ 4cc#/	.
[8AA\J	.	.
=209	=209	=209
*^	*	*
2F/ 2A/	1AA_	(8dd\L	p
.	.	8a\	.
.	.	8f\	.
.	.	8ff\J	.
2E/ 2Gn/	.	8ee\L	.
.	.	8cc#\	.
.	.	8a\	.
.	.	8gg\J	.
=210	=210	=210	=210
2D/ 2F/	1AA]	8ff\L	.
.	.	8dd\	.
.	.	8a\	.
.	.	8aa\J	.
2C#/ 2E/	.	8gg#\L	.
.	.	8aa\	.
.	.	8gg#\	.
.	.	8aa\J)	.
*v	*v	*	*
=211	=211	=211
8D/L	2a\ 2ff\ (2aa\	.
8AA/	.	.
8FF/	.	.
8D/J	.	.
8E/L	2gn\ 2ee\ 2ggn\	.
8C#/	.	.
8AA/	.	.
8E/J	.	.
=212	=212	=212
8F\L	2f\ 2dd\ 2ff\	.
8D\	.	.
8AA\	.	.
8A\J	.	.
8G#\L	2e\ 2cc#\ 2ee\)	.
8A\	.	.
8G#\	.	.
8A\J	.	.
=213	=213	=213
*^	*	*
4r	2AA\	(8dd\L	.
.	.	8a\	.
2F/ 2A/	.	8f\	.
.	.	8ff\J	.
.	2AA\	8ee\L	.
.	.	8cc#\	.
[4E/ [4Gn/	.	8a\	.
.	.	8gg\J	.
=214	=214	=214	=214
4E/] 4G/]	2AA\	8ff\L	.
.	.	8dd\	.
2D/ 2F/	.	8a\	.
.	.	8aa\J	.
.	2AA\	8gg#\L	.
.	.	8aa\	.
4C#/ 4E/	.	8gg#\	.
.	.	8aa\J)	.
*v	*v	*	*
=215	=215	=215
*	*^	*
8D/L	4r	2.a\	.
8AA/	.	.	.
8FF/	2ff/ (2aa/	.	.
8D/J	.	.	.
8E/L	.	.	.
8C#/	.	.	.
8AA/	[4ee/ [4ggn/	[4g\	.
8E/J	.	.	.
=216	=216	=216	=216
8F\L	4ee/] 4gg/]	4g\]	.
8D\	.	.	.
8AA\	2dd/ 2ff/	2f\	.
8A\J	.	.	.
8G#\L	.	.	.
8A\	.	.	.
8G#\	4cc#/ 4ee/)	4e\	.
8A\J	.	.	.
*	*v	*v	*
=217	=217	=217
*^	*	*
4r	2AA\	(8dd\L	.
.	.	8a\	.
2F/ 2A/	.	8f\	.
.	.	8ff\J	.
.	2AA\	8ee\L	.
.	.	8cc#\	.
[4E/ [4Gn/	.	8a\	.
.	.	8gg\J	.
=218	=218	=218	=218
4E/] 4G/]	2AA\	8ff\L	.
.	.	8dd\	.
2D/ 2F/	.	8a\	.
.	.	8aa\J	.
.	2AA\	8gg#\L	.
.	.	8aa\	.
4C#/ 4E/	.	8gg#\	.
.	.	8aa\J	.
=219	=219	=219	=219
4DD/	2DD\	8ff\L	<
.	.	8dd\	.
4D/	.	8a\	.
.	.	8aa\J	.
4AA/	2AA\	8gg#\L	.
.	.	8aa\	.
4C#/ 4E/	.	8gg#\	.
.	.	8aa\J	.
=220	=220	=220	=220
4D/	2D\	8ff\L	>
.	.	8dd\	.
4F/	.	8a\	.
.	.	8aa\J	.
4AA/	2AA\	8gg#\L	.
.	.	8aa\	.
4C#/ 4E/	.	8gg#\	.
.	.	8aa\J)	.
*v	*v	*	*
=221	=221	=221
4DD/ 4D/	4dd\	p
4r	4r	.
2DD/ 2D/	2d/	<
=222	=222	=222
2DD/ 2D/	2d/	.
2DD/ 2D/	2d/	.
*	*clefF4	*clefF4
=223	=223	=223
8DD/L	[1F [1A [1d	pp
8AAA/	.	.
8FFF/	.	.
8FF/J	.	.
8DD/L	.	.
8AAA/	.	.
8AA/	.	.
8FF/J	.	.
=224	=224	=224
8DD/L	1F_ 1A_ 1d_	.
8AAA/	.	.
8FFF/	.	.
8FF/J	.	.
8DD/L	.	.
8AAA/	.	.
8AA/	.	.
8FF/J	.	.
=225	=225	=225
8DD/L	1F_ 1A_ 1d_	.
8AAA/	.	.
8FFF/	.	.
8FF/J	.	.
8DD/L	.	.
8AAA/	.	.
8AA/	.	.
8FF/J	.	.
=226	=226	=226
8DD/L	1F_ 1A_ 1d_	.
8AAA/	.	.
8FFF/	.	.
8FF/J	.	.
8DD/L	.	.
8AAA/	.	.
8AA/	.	.
8FF/J	.	.
=227	=227	=227
8DD/L	1F_ 1A_ 1d_	.
8AAA/	.	.
8AA/	.	.
8FF/J	.	.
8DD/L	.	.
8AAA/	.	.
8AA/	.	.
8FF/J	.	.
=228	=228	=228
8DD/L	1F_ 1A_ 1d_	.
8AAA/	.	.
8AA/	.	.
8FF/J	.	.
8DD/L	.	.
8AAA/	.	.
8AA/	.	.
8FF/J	.	.
=229	=229	=229
1DD	1F] 1A] 1d]	.
*	*clefG2	*clefG2
=230	=230	=230
1DD 1AA 1D	1f 1a 1dd 1ff	.
=231	=231	=231
[1DD [1AA [1D	[1d [1f 1a [1dd	.
=232	=232	=232
1DD;] 1AA;] 1D;]	1d;] 1f;] 1a; 1dd;]	.
==	==	==
*-	*-	*-
!!!ENC: Craig Stuart Sapp
!!!END: 2004/11/22/
